Costumes/cloud-a.svg

<svg version="1.1" width="179" height="35" viewBox="-1 -1 179 35" xmlns="http://www.w3.org/2000/svg" xmlns:xlink="http://www.w3.org/1999/xlink">
  <!-- Exported by Scratch - http://scratch.mit.edu/ -->
  <g id="ID0.3278132351115346" transform="matrix(0.8573749661445618, 0, 0, 0.8573749661445618, 0.3, 0.3)">
    <path id="ID0.7241233633831143" fill="#FFFFFF" stroke="#E3DEEE" d="M 528.700 271.800 C 525.500 249.300 546.600 216.300 582.200 216.300 C 633.700 216.300 676.800 277.600 788.900 265.400 L 811.400 295 L 771.900 303.400 L 713.300 306.700 L 656.900 306.700 C 656.900 306.700 608.100 302.900 582.600 303.400 C 540.900 304.200 532.300 289.900 528.700 271.800 Z " transform="matrix(0.3584859073162079, 0, 0, 0.3584859073162079, -177.05, -76.35)"/>
    <path id="ID0.7151904893107712" fill="#E3DEEE" d="M 981.800 235.100 C 970.200 220 952.800 213.400 929 213.800 C 892.300 214.400 873.300 231.800 861.100 231.200 C 847.400 230.500 839.800 223.500 821.800 229.900 C 805.700 235.700 785.700 258.900 772.900 268.500 C 762.700 276.100 738.900 297.800 713.500 306.600 C 794.200 306.600 874.200 306.500 890.800 306.500 C 924.900 306.500 962.300 298.100 977.100 285.200 C 991.800 272.400 994.700 251.900 981.800 235.100 Z " transform="matrix(0.3584859073162079, 0, 0, 0.3584859073162079, -177.05, -76.35)"/>
    <path id="ID0.9633253426291049" fill="#E3DEEE" d="M 498.400 278.900 C 488.400 293.700 511.300 306.400 529.300 306.600 C 538.300 306.700 592.800 306.700 656.900 306.700 C 633.100 301 618 289.300 593.100 275.700 C 557.700 256.300 512 258.900 498.400 278.900 Z " transform="matrix(0.3584859073162079, 0, 0, 0.3584859073162079, -177.05, -76.35)"/>
  </g>
</svg>

<?xml version="1.0" encoding="UTF-8" standalone="no"?>
<svg
   version="1.1"
   width="151.84302"
   height="28.712387"
   viewBox="-1 -1 151.84302 28.712387"
   id="svg6"
   sodipodi:docname="cloud-a.svg"
   xmlns:inkscape="http://www.inkscape.org/namespaces/inkscape"
   xmlns:sodipodi="http://sodipodi.sourceforge.net/DTD/sodipodi-0.dtd"
   xmlns="http://www.w3.org/2000/svg"
   xmlns:svg="http://www.w3.org/2000/svg">
  <defs
     id="defs10" />
  <sodipodi:namedview
     id="namedview8"
     pagecolor="#ffffff"
     bordercolor="#000000"
     borderopacity="0.25"
     inkscape:showpageshadow="2"
     inkscape:pageopacity="0.0"
     inkscape:pagecheckerboard="0"
     inkscape:deskcolor="#d1d1d1" />
  <!-- Exported by Scratch - http://scratch.mit.edu/ -->
  <g
     id="ID0.3278132351115346"
     transform="matrix(0.85737497,0,0,0.85737497,-1.6404507,-1.247056)">
    <path
       id="ID0.7241233633831143"
       fill="#ffffff"
       stroke="#e3deee"
       d="m 528.7,271.8 c -3.2,-22.5 17.9,-55.5 53.5,-55.5 51.5,0 94.6,61.3 206.7,49.1 l 22.5,29.6 -39.5,8.4 -58.6,3.3 h -56.4 c 0,0 -48.8,-3.8 -74.3,-3.3 -41.7,0.8 -50.3,-13.5 -53.9,-31.6 z"
       transform="matrix(0.35848591,0,0,0.35848591,-177.05,-76.35)" />
    <path
       id="ID0.7151904893107712"
       fill="#e3deee"
       d="m 981.8,235.1 c -11.6,-15.1 -29,-21.7 -52.8,-21.3 -36.7,0.6 -55.7,18 -67.9,17.4 -13.7,-0.7 -21.3,-7.7 -39.3,-1.3 -16.1,5.8 -36.1,29 -48.9,38.6 -10.2,7.6 -34,29.3 -59.4,38.1 80.7,0 160.7,-0.1 177.3,-0.1 34.1,0 71.5,-8.4 86.3,-21.3 14.7,-12.8 17.6,-33.3 4.7,-50.1 z"
       transform="matrix(0.35848591,0,0,0.35848591,-177.05,-76.35)" />
    <path
       id="ID0.9633253426291049"
       fill="#e3deee"
       d="m 498.4,278.9 c -10,14.8 12.9,27.5 30.9,27.7 9,0.1 63.5,0.1 127.6,0.1 -23.8,-5.7 -38.9,-17.4 -63.8,-31 -35.4,-19.4 -81.1,-16.8 -94.7,3.2 z"
       transform="matrix(0.35848591,0,0,0.35848591,-177.05,-76.35)" />
  </g>
</svg>
